X:1
T:Ecce Quomodo Moritur
T:Georg Reutter (1708-1772)
T:Responsory for Good Friday
T:Ecce Quomodo Moritur
C:Georg Reutter
C:(1708-1772)
Z:Responsory for Good Friday
%%score { ( 1 3 ) | ( 2 4 ) }
L:1/8
Q:1/4=60
M:2/2
K:Ab
V:1 treble nm="Choir" snm="Choir"
V:3 treble 
V:2 bass 
V:4 bass 
V:1
"^Un poco Adagio" [CF]8 |[M:3/2] [C=E]4 z2 [CF]4 [CF][CF] |[M:2/2] [DF]4 [DF]2 [CE]2 | [B,D]8 | %4
w: Ec-|ce quo- mo- do|mo- ri- tur|ju-|
 [A,C]4 z2 [CE]2 |[M:3/2] [CA]4 [CA]2 [CA]4 [CG][CG] |[M:2/2] F4 =E4 | z2 [C=E]2 [CE]2 [CE]2 | %8
w: stus et|no- mo per- ci- pit|cor- de.|Et vi- ri|
 [CF]4 [CF]2 [CF]2 |[M:3/2] [B,D]4 [B,D]4 z2 [DF]2 |[M:2/2] [DE]4 [CE]2 [CE]2 | [B,E]6 [B,E]2 | %12
w: ju- sti tol-|lun- tur, et|no- mo con-|si- de-|
[M:3/2] [CE]4 z2 [Ac]2 [Ac]3 [Ac] |[M:2/2] [GB]2 [GB]2 [GB]2 [GB]2 | [Ac]4 [GB]2 [GB]2 | %15
w: rat. A fa- ci-|e i- ni- qui-|ta- tis sub-|
 [FA]4 [=EG]2 [CG]2 | F8 | !fermata!=E8 ||"^Più Adagio"[Q:1/4=60] z4 [=EG]4 | %19
w: la- tus est|ju-|stus.|Et|
 [FA]4 [FA]2 [!courtesy!=EG]2 | [DF]8 |[M:3/2] [CE]8 z2 [CE]2 |[M:2/2] [DF]4 [DF]2 [DF]2 | %23
w: e- rit in|pa-|ce me-|mo- ri- a|
 =E4 F4- | F4 =E4 | !fermata!F8 |]"^Andante"[Q:1/4=80] [CE]6 [CE]2 | [=DG]4 [DG]4 | %28
w: e- *||jus.|Tan- quam|a- gnus|
 [EG]4 [EG]2 [EG]2 |[M:3/2] [FA]4 [FA]2 [FA]4 [EG]2 |[M:2/2] G4 F4 | %31
w: co- ram ton-|den- te se ob-|mu- tu-|
[M:3/2] [=DG]4 z2 [CG]2 [CG]2 [CG]2 |[M:2/2] [CA]3 [CA] [B,A]2 [B,G]2 | F8 | %34
w: it, et non a-|per- u- it os|su-|
[M:3/2] [B,E]4 z2 [GB]4 [GB]2 |[M:2/2] [GB]3 [GB] [GB]4 | z2 [GB]2 [GB]2 [GB]2 | %37
w: um de an-|gu- sti- a,|et de ju-|
 [FA]3 [FA] [FA]2 [FA]2 | B6 B2 | !fermata!A8 ||"^Più Adagio"[Q:1/4=60] z4 [=EG]4 | %41
w: di- ci- o sub|la- tus|est.|Et|
 [FA]4 [FA]2 [!courtesy!=EG]2 | [DF]8 |[M:3/2] [CE]8 z2 [CE]2 |[M:2/2] [DF]4 [DF]2 [DF]2 | %45
w: e- rit in|pa|ce me-|mo- ri- a|
 =E4 F4- | F4 =E4 | !fermata!F8 |] %48
w: e- *||jus.|
V:2
 [F,A,]8 |[M:3/2] [C,G,]4 z2 [F,A,]4 [F,A,][F,A,] |[M:2/2] [D,A,]4 [D,A,]2 [A,,A,]2 | %3
 [A,,F,]4 [G,,E,]4 | [A,,E,]4 z2 [A,,A,]2 |[M:3/2] [F,,A,]4 [F,,A,]2 [F,A,]4 [C,=E,][C,E,] | %6
[M:2/2] [D,F,]4 [C,G,]4 | z2 [C,G,]2 [C,G,]2 [C,G,]2 | [=A,,F,]4 [A,,F,]2 [A,,F,]2 | %9
[M:3/2] [B,,F,]4 [B,,F,]4 z2 [B,,B,]2 |[M:2/2] [E,G,]4 [E,A,]2 [E,A,]2 | A,4 G,4 | %12
[M:3/2] [A,,A,]4 z2 [A,E]2 [A,E]3 [A,E] |[M:2/2] [E,E]2 [E,E]2 [E,E]2 [E,E]2 | %14
 [A,E]4 [=E,C]2 [E,C]2 | [F,C]4 [C,C]2 [C,C]2 | A,4 G,2 F,2 | !fermata!G,8 || z4 [C,C]4 | %19
 [F,C]4 [F,C]2 [C,C]2 | [D,A,]8 |[M:3/2] [A,,A,]8 z2 [A,,A,]2 |[M:2/2] [D,A,]4 [B,,B,]2 [B,,B,]2 | %23
 B,4 A,4 | G,8 | !fermata!=A,8 |] [C,G,]6 [C,G,]2 | [=B,,G,]4 [B,,G,]4 | [C,G,]4 [C,G,]2 [C,C]2 | %29
[M:3/2] [F,C]4 [F,C]2 [F,C]4 [G,=B,]2 |[M:2/2] [A,C]6 [A,C]2 | %31
[M:3/2] [G,=B,]4 z2 [=E,G,]2 [E,G,]2 [E,G,]2 |[M:2/2] F,3 F, [=D,F,]2 E,2 | A,8 | %34
[M:3/2] [E,G,]4 z2 [E,E]4 [E,E]2 |[M:2/2] [=E,_D]3 [E,D] [E,D]4 | z2 [=E,D]2 [E,D]2 [E,D]2 | %37
 [F,C]3 [F,C] [F,C]2 [F,C]2 | G,6 G,2 | !fermata!F,8 || z4 [C,C]4 | %41
 [F,C]4"^Behold how the righteous man dies and no one understands.Righteous men are taken away and no one considers:The righteous man has been taken away from present iniquityAnd his memory shall be in peace.He shall be led as a sheep to the slaughter, and shall be dumb as a lamb before his shearer, and he shall not open his mouth. He was taken away from distress, and from judgment. And his memory shall be in peace." [F,C]2 [C,C]2 | %42
 [D,A,]8 |[M:3/2] [A,,A,]8 z2 [A,,A,]2 |[M:2/2] [D,A,]4 [B,,B,]2 [B,,B,]2 | B,4 A,4 | G,8 | =A,8 |] %48
V:3
 x8 |[M:3/2] x12 |[M:2/2] x8 | x8 | x8 |[M:3/2] x12 |[M:2/2] (C2 B,2) C4 | x8 | x8 |[M:3/2] x12 | %10
[M:2/2] x8 | x8 |[M:3/2] x12 |[M:2/2] x8 | x8 | x8 | C4- B,4 | !fermata!C8 || x8 | x8 | x8 | %21
[M:3/2] x12 |[M:2/2] x8 | C8- | C8 | !fermata!C8 |] x8 | x8 | x8 |[M:3/2] x12 | %30
[M:2/2] E4 (=D2 C2) |[M:3/2] x12 |[M:2/2] x8 | (C4 B,4) |[M:3/2] x12 |[M:2/2] x8 | z2 x6 | x8 | %38
 D4 C4 | !fermata!C8 || x8 | x8 | x8 |[M:3/2] x12 |[M:2/2] x8 | C8- | C8 | C8 |] %48
V:4
 x8 |[M:3/2] x12 |[M:2/2] x8 | x8 | x8 |[M:3/2] x12 |[M:2/2] x8 | x8 | x8 |[M:3/2] x12 | %10
[M:2/2] x8 | E,6 E,2 |[M:3/2] x12 |[M:2/2] x8 | x8 | x8 | D,8 | !fermata!C,8 || x8 | x8 | x8 | %21
[M:3/2] x12 |[M:2/2] x8 | C,8- | C,8 | !fermata!F,,8 |] x8 | x8 | x8 |[M:3/2] x12 |[M:2/2] x8 | %31
[M:3/2] x12 |[M:2/2] x8 | E,4 =D,4 |[M:3/2] x12 |[M:2/2] x8 | z2 x6 | x8 | F,4 =E,4 | %39
 !fermata!F,8 || x8 | x8 | x8 |[M:3/2] x12 |[M:2/2] x8 | C,8- | C,8 | !fermata!F,,8 |] %48

